X: 1
T: Box the Fox
O: Bob Carlin, Fiddle TUnes for Clawhammer Banjo
R: reel
Z: 2020 John Chambers <jc:trillian.mit.edu>
S: https://www.facebook.com/groups/Fiddletuneoftheday/ 2020-10-18
S: https://www.facebook.com/groups/Fiddletuneoftheday/photos/
M: C|
L: 1/8
K: D
ag |\
"D"fgaf dfaf | "G"gabg "A"e2ed | cdec "A7"Acec | "D"defd A2 ag |
"D"fgaf dfaf | "G"gabg "A"e2ed | cdec "A7"Acec | "D"d2fe d2 :|
|: dB |\
"D"A2f2- f2fd | "G"Bdg2 g2ga | "D"fgfd "A"efec | "D"dedB A2dB |
"D"A2f2- f2fd | "G"Bdg2 g2ga | "D"fgfd "A"efec | "D"dBAF D2 :|
